X:1
T:Lady of the Lake [8]
M:6/8
L:1/8
R:Jig
K:D
F2G |\
A2^G A2B | A2G F2G | A2^G A2B | A2z E2F | G2F G2A | G2F E2F | G2F G2A | GFG =c2B |
A3 d3 | A3 F3 | G2F G2A | B3 z3 | A2B c2B | A2B c2B | ABA GFE | D2F A2A |
ABA F2d | ABA F2A | GAG E2F | GFG =c2B | ABA F2d | BcB G2B | A2A ABc | d2z :| 
